img/svgicons/person.svg

<svg width="24" height="24" fill="none" xmlns="http://www.w3.org/2000/svg"><path d="M18.39 15.06c-1.68-.86-3.86-1.56-6.39-1.56s-4.71.7-6.39 1.56A2.97 2.97 0 004 17.72v2.78h16v-2.78c0-1.12-.61-2.15-1.61-2.66zM18 18.5H6v-.78c0-.38.2-.72.52-.88 1.19-.61 3.11-1.34 5.48-1.34 2.37 0 4.29.73 5.48 1.34.32.16.52.5.52.88v.78zm-6-6c2.21 0 4-1.79 4-4V5c0-.83-.67-1.5-1.5-1.5-.52 0-.98.27-1.25.67-.27-.4-.73-.67-1.25-.67s-.98.27-1.25.67c-.27-.4-.73-.67-1.25-.67C8.67 3.5 8 4.17 8 5v3.5c0 2.21 1.79 4 4 4zM10 6h4v2.5c0 1.1-.9 2-2 2s-2-.9-2-2V6z" fill="#202020"/></svg>

<svg width="24" height="24" viewBox="0 0 24 24" fill="none" xmlns="http://www.w3.org/2000/svg">
<path d="M18.39 15.06C16.71 14.2 14.53 13.5 12 13.5C9.47 13.5 7.29 14.2 5.61 15.06C4.61 15.57 4 16.6 4 17.72V20.5H20V17.72C20 16.6 19.39 15.57 18.39 15.06ZM18 18.5H6V17.72C6 17.34 6.2 17 6.52 16.84C7.71 16.23 9.63 15.5 12 15.5C14.37 15.5 16.29 16.23 17.48 16.84C17.8 17 18 17.34 18 17.72V18.5Z" fill="#202020"/>
<path d="M12 12.5C14.21 12.5 16 10.71 16 8.5C16 7.13 16 5 16 5C16 4.17 15.33 3.5 14.5 3.5C13.98 3.5 13.52 3.77 13.25 4.17C12.98 3.77 12.52 3.5 12 3.5C11.48 3.5 11.02 3.77 10.75 4.17C10.48 3.77 10.02 3.5 9.5 3.5C8.67 3.5 8 4.17 8 5C8 5 8 7.12 8 8.5C8 10.71 9.79 12.5 12 12.5ZM10 6H14V8.5C14 9.6 13.1 10.5 12 10.5C10.9 10.5 10 9.6 10 8.5V6Z" fill="#202020"/>
</svg>
